icons/1_Primary/Russian Post.svg

<svg width="1024" height="1024" viewBox="0 0 1024 1024" fill="none" xmlns="http://www.w3.org/2000/svg">
<g clip-path="url(#clip0_2_3381)">
<path d="M512 1024C794.77 1024 1024 794.77 1024 512C1024 229.23 794.77 0 512 0C229.23 0 0 229.23 0 512C0 794.77 229.23 1024 512 1024Z" fill="#728DBE"/>
<path d="M671.36 426.3H651.71L652.1 408.61H658.47C663.03 408.61 666.17 410.03 668.06 412.93C669.63 415.3 670.66 420 671.36 426.3ZM407.67 549.74C403.82 549.74 400.83 552.88 398.79 559.17C396.67 565.77 395.65 574.42 395.65 584.88C395.65 595.1 396.75 603.75 398.87 610.59C400.87 617.12 403.87 620.42 407.68 620.42C411.61 620.42 414.6 617.2 416.68 610.75C418.8 603.99 419.9 595.18 419.9 584.65C419.9 573.65 418.96 565.15 417.07 559.33C415.14 552.88 412 549.74 407.67 549.74ZM342.18 551H341.55V579.85C341.55 584.41 342.18 587.85 343.36 590.23C344.54 592.61 345.88 593.61 347.45 593.61C349.02 593.61 350.59 592.35 351.85 589.84C353.377 586.158 354.061 582.181 353.85 578.2C353.85 568.69 352.85 561.69 350.63 557.29C348.63 553 345.8 551 342.18 551ZM437.39 406.49C433.14 406.49 429.92 409.49 427.72 415.69C425.36 422.22 424.1 430.79 424.1 441.24C423.876 449.873 425.099 458.482 427.72 466.71C430.08 473.16 433.22 476.3 437.39 476.3C441.71 476.3 444.94 473.23 447.22 466.87H447.3C449.66 460.19 450.92 451.46 450.92 440.93C450.92 430.08 449.82 421.59 447.78 415.77C445.57 409.48 442.11 406.49 437.39 406.49ZM740 276.14V747.86H284V276.14H740ZM326 490.93H343.61V408.61H365.47V490.93H383.16V392.26H326V490.93ZM370.11 574.11C370.252 566.396 368.695 558.745 365.55 551.7C363.717 547.063 360.499 543.104 356.336 540.361C352.172 537.618 347.264 536.224 342.28 536.37H325.83V634.37H341.55V605.87C344.55 608.62 347.84 610.19 351.55 610.19C356.74 610.19 361.06 607.36 364.44 601.78C368.2 595.5 370.09 586.22 370.09 574.11H370.11ZM435.68 584.65C435.68 569.55 433.16 557.29 428.37 548.01C423.37 538.58 416.5 533.86 407.69 533.86C399.36 533.86 392.75 538.66 387.96 548.09C383.24 557.37 380.88 569.71 380.88 584.73C380.88 600.3 383.24 612.95 387.64 622.15C392.2 631.58 398.96 636.3 407.64 636.3C416.52 636.3 423.52 631.3 428.55 621.44C433.3 612.24 435.66 599.82 435.66 584.65H435.68ZM437.31 493C447.37 493 455.31 488 460.9 478.06C466.17 468.7 468.76 456.28 468.76 440.95C469.317 428.19 466.525 415.506 460.66 404.16C455.16 394.65 447.29 389.85 437.31 389.85C427.877 389.85 420.487 394.647 415.14 404.24C409.437 415.665 406.733 428.353 407.28 441.11C407.28 456.76 409.8 469.41 414.75 478.69C419.94 488.18 427.48 493 437.31 493ZM495.41 620.13H494.62C490.304 620.337 486.001 619.528 482.055 617.769C478.108 616.009 474.63 613.349 471.9 610C466.623 602.912 463.956 594.218 464.35 585.39C464.35 575.17 466.71 566.91 471.58 560.86C476.77 554.26 484.47 550.86 494.38 550.86H495.17V533.78H494.38C478.89 533.78 466.86 538.78 458.76 548.72C451.45 557.6 447.67 569.95 447.67 585.59C447.67 600.69 451.76 613.03 459.67 622.38C464.001 627.318 469.387 631.218 475.431 633.79C481.474 636.363 488.019 637.542 494.58 637.24H495.37L495.41 620.13ZM495.72 436.79C500.592 441.104 506.904 443.434 513.41 443.32H526.23V490.96H543.92V392.26H526.23V426.62H516.72C512.79 426.62 509.8 425.68 507.91 423.87C507.215 423.172 506.677 422.334 506.332 421.411C505.987 420.488 505.843 419.503 505.91 418.52V392.26H488.26V420.41C488.21 423.52 488.854 426.601 490.146 429.43C491.439 432.258 493.346 434.763 495.73 436.76L495.72 436.79ZM554.61 620.1H553.82C549.491 620.326 545.169 619.529 541.204 617.774C537.24 616.02 533.744 613.356 531 610C525.723 602.912 523.056 594.218 523.45 585.39C523.45 575.17 525.89 566.91 530.68 560.86C535.87 554.26 543.57 550.86 553.48 550.86H554.27V533.78H553.48C537.99 533.78 525.96 538.78 517.94 548.72C510.55 557.6 506.78 569.95 506.78 585.59C506.78 600.69 510.87 613.03 518.89 622.38C523.221 627.318 528.607 631.218 534.651 633.79C540.694 636.363 547.239 637.542 553.8 637.24H554.59L554.61 620.1ZM565.07 408.61H579.69V490.93H597.3V408.61H612.24V392.26H565.07V408.61ZM625.37 634.25L621.6 531.42L620.34 532.84L585 570.65V536.14H569.63V634.26H585V594L607.41 569.63L609.61 634.26L625.37 634.25ZM632.05 490.92H649.66L651.39 442.73H673.33L678.33 490.92H696.1L688 418.76C688 409.33 685.17 402.25 679.59 397.69C674.377 393.829 667.99 391.886 661.51 392.19H635.2L632.05 490.92ZM699.05 634.25L695.26 531.5L695.18 531.42L693.92 532.84L658.62 570.66V536.14H643.3V634.26H658.71V594L681.12 569.63L683.32 634.26L699.05 634.25Z" fill="white"/>
</g>
<defs>
<clipPath id="clip0_2_3381">
<rect width="1024" height="1024" fill="white"/>
</clipPath>
</defs>
</svg>

<svg width="1024" height="1024" fill="none" xmlns="http://www.w3.org/2000/svg"><g clip-path="url(#a)"><path d="M512 1024c282.77 0 512-229.23 512-512S794.77 0 512 0 0 229.23 0 512s229.23 512 512 512Z" fill="#728DBE"/><path d="M671.36 426.3h-19.65l.39-17.69h6.37c4.56 0 7.7 1.42 9.59 4.32 1.57 2.37 2.6 7.07 3.3 13.37ZM407.67 549.74c-3.85 0-6.84 3.14-8.88 9.43-2.12 6.6-3.14 15.25-3.14 25.71 0 10.22 1.1 18.87 3.22 25.71 2 6.53 5 9.83 8.81 9.83 3.93 0 6.92-3.22 9-9.67 2.12-6.76 3.22-15.57 3.22-26.1 0-11-.94-19.5-2.83-25.32-1.93-6.45-5.07-9.59-9.4-9.59ZM342.18 551h-.63v28.85c0 4.56.63 8 1.81 10.38 1.18 2.38 2.52 3.38 4.09 3.38 1.57 0 3.14-1.26 4.4-3.77a26.696 26.696 0 0 0 2-11.64c0-9.51-1-16.51-3.22-20.91-2-4.29-4.83-6.29-8.45-6.29Zm95.21-144.51c-4.25 0-7.47 3-9.67 9.2-2.36 6.53-3.62 15.1-3.62 25.55a77.307 77.307 0 0 0 3.62 25.47c2.36 6.45 5.5 9.59 9.67 9.59 4.32 0 7.55-3.07 9.83-9.43h.08c2.36-6.68 3.62-15.41 3.62-25.94 0-10.85-1.1-19.34-3.14-25.16-2.21-6.29-5.67-9.28-10.39-9.28ZM740 276.14v471.72H284V276.14h456ZM326 490.93h17.61v-82.32h21.86v82.32h17.69v-98.67H326v98.67Zm44.11 83.18a52.6 52.6 0 0 0-4.56-22.41 24.26 24.26 0 0 0-23.27-15.33h-16.45v98h15.72v-28.5c3 2.75 6.29 4.32 10 4.32 5.19 0 9.51-2.83 12.89-8.41 3.76-6.28 5.65-15.56 5.65-27.67h.02Zm65.57 10.54c0-15.1-2.52-27.36-7.31-36.64-5-9.43-11.87-14.15-20.68-14.15-8.33 0-14.94 4.8-19.73 14.23-4.72 9.28-7.08 21.62-7.08 36.64 0 15.57 2.36 28.22 6.76 37.42 4.56 9.43 11.32 14.15 20 14.15 8.88 0 15.88-5 20.91-14.86 4.75-9.2 7.11-21.62 7.11-36.79h.02Zm1.63-91.65c10.06 0 18-5 23.59-14.94 5.27-9.36 7.86-21.78 7.86-37.11a73.169 73.169 0 0 0-8.1-36.79c-5.5-9.51-13.37-14.31-23.35-14.31-9.433 0-16.823 4.797-22.17 14.39a75.33 75.33 0 0 0-7.86 36.87c0 15.65 2.52 28.3 7.47 37.58 5.19 9.49 12.73 14.31 22.56 14.31Zm58.1 127.13h-.79A27.61 27.61 0 0 1 471.9 610a38.349 38.349 0 0 1-7.55-24.61c0-10.22 2.36-18.48 7.23-24.53 5.19-6.6 12.89-10 22.8-10h.79v-17.08h-.79c-15.49 0-27.52 5-35.62 14.94-7.31 8.88-11.09 21.23-11.09 36.87 0 15.1 4.09 27.44 12 36.79a43.752 43.752 0 0 0 34.91 14.86h.79l.04-17.11Zm.31-183.34a25.997 25.997 0 0 0 17.69 6.53h12.82v47.64h17.69v-98.7h-17.69v34.36h-9.51c-3.93 0-6.92-.94-8.81-2.75a6.917 6.917 0 0 1-2-5.35v-26.26h-17.65v28.15a20.895 20.895 0 0 0 7.47 16.35l-.01.03Zm58.89 183.31h-.79A27.614 27.614 0 0 1 531 610a38.349 38.349 0 0 1-7.55-24.61c0-10.22 2.44-18.48 7.23-24.53 5.19-6.6 12.89-10 22.8-10h.79v-17.08h-.79c-15.49 0-27.52 5-35.54 14.94-7.39 8.88-11.16 21.23-11.16 36.87 0 15.1 4.09 27.44 12.11 36.79a43.752 43.752 0 0 0 34.91 14.86h.79l.02-17.14Zm10.46-211.49h14.62v82.32h17.61v-82.32h14.94v-16.35h-47.17v16.35Zm60.3 225.64-3.77-102.83-1.26 1.42L585 570.65v-34.51h-15.37v98.12H585V594l22.41-24.37 2.2 64.63 15.76-.01Zm6.68-143.33h17.61l1.73-48.19h21.94l5 48.19h17.77l-8.1-72.16c0-9.43-2.83-16.51-8.41-21.07a28.161 28.161 0 0 0-18.08-5.5H635.2l-3.15 98.73Zm67 143.33-3.79-102.75-.08-.08-1.26 1.42-35.3 37.82v-34.52H643.3v98.12h15.41V594l22.41-24.37 2.2 64.63 15.73-.01Z" fill="#fff"/></g><defs><clipPath id="a"><path fill="#fff" d="M0 0h1024v1024H0z"/></clipPath></defs></svg>
